X:495
%%etbk:tnset id:219,pos:2,rep:3x,ant:
%%etbk:wsite https://thesession.org/tunes/12410
%%etbk:pldat 2016-09-17T15:03,2016-09-16T15:22,2016-09-15T18:31,2016-09-13T15:22,2016-09-12T18:57,2016-09-06T17:54,2016-09-04T14:16,2015-08-15T16:39,2015-08-11T16:59,2014-09-21T12:06,2014-04-06T16:45,2014-03-25T17:44,2014-03-23T16:16,2013-11-27T17:52,2013-11-26T17:23,2013-10-05T15:51,2013-09-29T15:21,2013-09-27T15:34,2013-09-16T16:01
T:Barrel Rafferty's
Z: Piano Box Version by Martin Fleischmann
H: Created 2013-09-15 /  Last Modified 2013-09-27
M:6/8
R:Jig
K:Ador
|:"am"!1!E2!3!A AGE|!3!A2B !5!c2!1!E| "G"!2!EDE !4!G2E|!5!A2A !4!GE!1!D|
"am"!1!E2A AGE|!3!A2!4!B !3!c2!4!d|"em"!3!ege !2!d!1!B!2!G|1 !4!BAG "am"!3!A2G:|2 !4!BAG "am"!3!A2d||
|:"am"!2!e2!4!a aga|!5!b2a !3!g2!2!e|"G"!2!ede !4!g2e|!5!a2a ged|
"am"!2!e2!4!a aga|!5!b2a !3!g2!2!e| "em"!5!age !1!d!2!B!1!G|1 BAG "am"A2d:|2 BAG "am"A2G||


